X: 35302
T: Rose Of St Magnus
R: barndance
M: 4/4
K: Dmajor
AG|F4 A4|d4 agfd|B4 d4|g4 agfe|e2 fA-A4|
e2 fA-A4-|A2 d2 c3 d|f4 e3 d|d8 -|d6:|
dc|B4 d4|g6 a2|a4 f3 e|d6 dc|
B4 d4|g6 a2|a8-|a6 AG|
F4 A4|d4 agfd|B4 d4|g4 agfe|e2 fA- A4|
e2 fA- A4-|A2 d2 c3 d|f4 e3 d|d8-|d6||

